!! 00000] TT[WS
!!!OTL: Jun xipian diao
!!!ARE: Asia, China, Shanxi Dingxiang
!! Ethnic Group: Han
!! WI, 320
!!!SCT: J0388
!!!YEM: Copyright 1995, estate of Helmut Schaffrath.
**kern
*ICvox
*Ivox
*M2/4
*k[b-e-]
*B-:
{8ddd
8ddd
16fff
16fff
16fff
16ggg
=1
4fff
4ddd
=2
16fff
8ccc
16ddd
16fff
8fff
16ccc
=3
2bb-}
=4
{8ddd
16ccc
16ddd
8fff
16fff
16ddd
=5
8ccc
16bb-
16ccc
8ddd
8fff
=6
16bb-
16ccc
16aa
16gg
8.ff
16gg
=7
16gg
16bb-
16ff
16gg
16aa
16ccc
8gg
=8
2ff}
==
!!!AGN: Xiaodiao. Xinminge, Xuanchuan
!! Neue Text. Politische Liede
!!!ONB: ESAC (Essen Associative Code) Database: CHINA
!!!AMT: simple duple
!!!AIN: vox
!!!EED: Helmut Schaffrath
!!!EEV: 1.0
*-
